build/img/icon/mess-viber.svg

<svg xmlns="http://www.w3.org/2000/svg" width="198" height="198" fill="none"><path d="M99 196.62c53.914 0 97.62-43.706 97.62-97.62S152.914 1.38 99 1.38 1.38 45.086 1.38 99 45.086 196.62 99 196.62z" fill="#8040BD"/><path fill-rule="evenodd" clip-rule="evenodd" d="M125.56 92.99c.09-10.53-8.88-20.19-20-21.53-.22-.03-.46-.07-.72-.11-.55-.09-1.12-.19-1.69-.19-2.28 0-2.89 1.61-3.05 2.56-.16.93-.01 1.71.44 2.32.75 1.03 2.08 1.21 3.15 1.36.31.04.61.08.86.13 9.99 2.24 13.35 5.75 15 15.65.04.25.06.55.07.86.08 1.19.22 3.65 2.87 3.65.22 0 .46-.02.71-.06 2.46-.37 2.39-2.63 2.35-3.71-.01-.3-.02-.59 0-.78.01-.05.01-.1.01-.15z" fill="#FEFEFE"/><path fill-rule="evenodd" clip-rule="evenodd" d="M102.5 67.59c.3.02.58.04.81.08 16.41 2.52 23.95 10.3 26.04 26.83.04.28.04.63.05.99.02 1.29.06 3.98 2.95 4.04h.09c.91 0 1.63-.27 2.14-.81.9-.94.84-2.34.79-3.46-.02-.28-.03-.54-.02-.76.2-16.92-14.43-32.25-31.33-32.82-.07-.01-.14 0-.21.01-.03 0-.09.01-.2.01-.17 0-.37-.02-.59-.03-.27-.02-.57-.04-.87-.04-2.7 0-3.21 1.91-3.27 3.05-.15 2.64 2.4 2.82 3.62 2.91zm26.06 48.28c-.35-.26-.71-.54-1.04-.81-1.8-1.44-3.7-2.77-5.55-4.06-.38-.26-.76-.53-1.14-.8-2.36-1.65-4.49-2.46-6.49-2.46-2.7 0-5.05 1.49-7 4.44-.86 1.3-1.9 1.93-3.19 1.93-.76 0-1.63-.21-2.57-.64-7.62-3.46-13.07-8.75-16.18-15.75-1.5-3.38-1.01-5.59 1.63-7.39 1.51-1.02 4.31-2.92 4.11-6.56-.23-4.13-9.34-16.56-13.18-17.97-1.63-.59-3.34-.6-5.09-.01-4.41 1.48-7.58 4.09-9.16 7.53-1.53 3.33-1.46 7.24.2 11.31 4.79 11.76 11.52 22.02 20.01 30.48 8.32 8.28 18.53 15.06 30.37 20.16 1.07.46 2.19.71 3.01.89.27.07.51.12.69.17.09.02.19.04.3.04h.09c5.57 0 12.25-5.09 14.31-10.89 1.8-5.08-1.49-7.59-4.13-9.61zm-23.6-34.84c-.95.02-2.93.07-3.63 2.09-.33.94-.29 1.76.11 2.44.6.99 1.73 1.29 2.76 1.45 3.73.6 5.65 2.67 6.04 6.5.17 1.79 1.38 3.04 2.92 3.04.12 0 .24-.01.35-.02 1.86-.22 2.76-1.59 2.68-4.06.03-2.58-1.32-5.51-3.62-7.85s-5.08-3.65-7.61-3.59z" fill="#FEFEFE"/></svg>

<?xml version="1.0" encoding="UTF-8"?> <svg xmlns="http://www.w3.org/2000/svg" width="198" height="198" viewBox="0 0 198 198" fill="none"> <path d="M99 196.62C152.914 196.62 196.62 152.914 196.62 99C196.62 45.086 152.914 1.38 99 1.38C45.086 1.38 1.38 45.086 1.38 99C1.38 152.914 45.086 196.62 99 196.62Z" fill="#8040BD"></path> <path fill-rule="evenodd" clip-rule="evenodd" d="M125.56 92.99C125.65 82.46 116.68 72.8 105.56 71.46C105.34 71.43 105.1 71.39 104.84 71.35C104.29 71.26 103.72 71.16 103.15 71.16C100.87 71.16 100.26 72.77 100.1 73.72C99.94 74.65 100.09 75.43 100.54 76.04C101.29 77.07 102.62 77.25 103.69 77.4C104 77.44 104.3 77.48 104.55 77.53C114.54 79.77 117.9 83.28 119.55 93.18C119.59 93.43 119.61 93.73 119.62 94.04C119.7 95.23 119.84 97.69 122.49 97.69C122.71 97.69 122.95 97.67 123.2 97.63C125.66 97.26 125.59 95 125.55 93.92C125.54 93.62 125.53 93.33 125.55 93.14C125.56 93.09 125.56 93.04 125.56 92.99Z" fill="#FEFEFE"></path> <path fill-rule="evenodd" clip-rule="evenodd" d="M102.5 67.59C102.8 67.61 103.08 67.63 103.31 67.67C119.72 70.19 127.26 77.97 129.35 94.5C129.39 94.78 129.39 95.13 129.4 95.49C129.42 96.78 129.46 99.47 132.35 99.53H132.44C133.35 99.53 134.07 99.26 134.58 98.72C135.48 97.78 135.42 96.38 135.37 95.26C135.35 94.98 135.34 94.72 135.35 94.5C135.55 77.58 120.92 62.25 104.02 61.68C103.95 61.67 103.88 61.68 103.81 61.69C103.78 61.69 103.72 61.7 103.61 61.7C103.44 61.7 103.24 61.68 103.02 61.67C102.75 61.65 102.45 61.63 102.15 61.63C99.45 61.63 98.94 63.54 98.88 64.68C98.73 67.32 101.28 67.5 102.5 67.59Z" fill="#FEFEFE"></path> <path fill-rule="evenodd" clip-rule="evenodd" d="M128.56 115.87C128.21 115.61 127.85 115.33 127.52 115.06C125.72 113.62 123.82 112.29 121.97 111C121.59 110.74 121.21 110.47 120.83 110.2C118.47 108.55 116.34 107.74 114.34 107.74C111.64 107.74 109.29 109.23 107.34 112.18C106.48 113.48 105.44 114.11 104.15 114.11C103.39 114.11 102.52 113.9 101.58 113.47C93.96 110.01 88.51 104.72 85.4 97.72C83.9 94.34 84.39 92.13 87.03 90.33C88.54 89.31 91.34 87.41 91.14 83.77C90.91 79.64 81.8 67.21 77.96 65.8C76.33 65.21 74.62 65.2 72.87 65.79C68.46 67.27 65.29 69.88 63.71 73.32C62.18 76.65 62.25 80.56 63.91 84.63C68.7 96.39 75.43 106.65 83.92 115.11C92.24 123.39 102.45 130.17 114.29 135.27C115.36 135.73 116.48 135.98 117.3 136.16C117.57 136.23 117.81 136.28 117.99 136.33C118.08 136.35 118.18 136.37 118.29 136.37H118.38C123.95 136.37 130.63 131.28 132.69 125.48C134.49 120.4 131.2 117.89 128.56 115.87Z" fill="#FEFEFE"></path> <path fill-rule="evenodd" clip-rule="evenodd" d="M104.96 81.03C104.01 81.05 102.03 81.1 101.33 83.12C101 84.06 101.04 84.88 101.44 85.56C102.04 86.55 103.17 86.85 104.2 87.01C107.93 87.61 109.85 89.68 110.24 93.51C110.41 95.3 111.62 96.55 113.16 96.55C113.28 96.55 113.4 96.54 113.51 96.53C115.37 96.31 116.27 94.94 116.19 92.47C116.22 89.89 114.87 86.96 112.57 84.62C110.27 82.28 107.49 80.97 104.96 81.03Z" fill="#FEFEFE"></path> </svg>
